public/assets/icons/ic_profile5.svg

<svg width="45" height="45" viewBox="0 0 45 45" fill="none" xmlns="http://www.w3.org/2000/svg">
<g clip-path="url(#clip0_281_15278)">
<rect width="45" height="45" rx="22.5" fill="#5865F2"/>
<path d="M33.8198 39.6073C33.8198 34.8514 29.6052 30.9602 24.4515 30.9602H20.7056C15.5537 30.9602 11.3373 34.8514 11.3373 39.6073V43.9309C11.3372 44.5155 11.4175 45.0975 11.576 45.6603H33.5811C33.7396 45.0975 33.8199 44.5155 33.8198 43.9309V39.6073Z" fill="#AABFF2"/>
<path d="M19.2147 18.576C19.2014 18.4461 19.1517 18.3225 19.0712 18.2197C17.9453 16.6944 16.8419 14.9667 15.4843 13.5503C14.3379 14.7331 13.221 15.944 12.1345 17.1821C12.4509 17.7839 12.8262 18.3564 13.0459 18.991L19.2147 18.576ZM32.8979 20.9297C32.7882 19.5457 32.5959 18.1696 32.322 16.8085C32.1298 15.7961 31.8933 14.7927 31.6129 13.8011V13.7786C30.1412 14.6208 28.6124 15.3351 27.1164 16.058V16.0752C27.0749 16.895 27.0196 17.8375 27.2236 18.6555" fill="#FFC239"/>
<path d="M31.6009 13.7457L31.5611 13.6039C31.3692 12.8828 31.1806 12.0336 30.6687 11.4888C30.4286 11.2198 30.0975 11.0489 29.739 11.009C29.3806 10.9691 29.02 11.063 28.7266 11.2727C28.0694 11.7275 27.7668 12.6285 27.5454 13.3618C27.2923 14.2369 27.1448 15.1392 27.1061 16.0493C28.6073 15.323 30.1361 14.6122 31.6026 13.7699L31.6009 13.7457ZM13.4005 11.8347C12.956 11.5632 12.4251 11.3297 11.9253 11.4888C11.2923 11.6739 10.9914 12.4072 10.9499 13.0678C10.8928 14.1815 11.4013 15.1431 11.7074 16.1808C11.8163 16.5295 11.9594 16.8667 12.1345 17.1873C13.2236 15.9516 14.3406 14.7407 15.4844 13.5555C14.8663 12.8951 14.1659 12.3167 13.4005 11.8347Z" fill="black"/>
<path d="M34.7933 22.3236V22.2129C34.774 22.0656 34.7671 21.9169 34.7726 21.7685C34.7576 21.2979 34.6749 20.8319 34.527 20.3849C34.3991 19.9962 34.2437 19.617 34.0618 19.2504C32.5849 16.2879 29.7642 15.7501 26.9366 15.6187C25.553 15.5495 24.3874 15.5045 23.1993 15.5045C19.3738 15.5045 16.5791 16.0233 14.1389 17.163C12.3091 18.0277 11.6001 19.3784 11.1781 20.4489C11.1107 20.7792 10.8236 21.8878 10.7544 22.2199L10.9481 22.3305L34.7933 22.3236Z" fill="#FFC239"/>
<path d="M36.6803 23.2696C36.2773 22.0262 35.1636 22.0227 34.0723 22.0763C33.9291 21.2334 33.6696 20.4145 33.301 19.643C32.0247 17.0835 29.5309 16.6114 26.9021 16.4817C22.7014 16.2741 18.3121 16.1617 14.5143 17.9448C12.7295 18.7835 12.2021 20.174 11.8129 21.2255C11.742 21.4192 11.6867 21.6284 11.6262 21.8308C11.5753 21.82 11.5239 21.8119 11.4723 21.8065C8.65676 21.6215 7.96499 23.8905 8.00131 26.3013C8.0186 27.4687 8.09297 29.0321 8.61006 30.106C9.15656 31.2388 10.3723 31.1437 11.4498 31.0901C11.5444 31.0846 11.6383 31.0696 11.7299 31.0451C12.6258 33.5925 14.8429 34.58 17.4232 34.9173C21.3818 35.4361 25.8351 35.5762 29.7799 34.938C32.2374 34.5385 33.3356 33.072 33.8267 31.0866C34.1488 31.0777 34.4685 31.0278 34.7779 30.9379C36.1614 30.5367 36.9293 30.0472 37.0763 28.534C37.2354 26.9014 37.1887 24.8365 36.6803 23.2696Z" fill="#AABFF2"/>
<path d="M27.1166 23.228C26.0789 22.4273 24.6349 22.3927 23.3931 22.3166C21.6515 22.2137 19.9037 22.3054 18.1824 22.5898C18.0228 22.6174 17.8679 22.6674 17.7224 22.7386C17.4228 22.7857 17.1447 22.9227 16.9248 23.1315C16.7049 23.3403 16.5536 23.611 16.491 23.9077C15.8892 26.3513 16.3769 29.4643 18.9935 30.4794C21.2608 31.3632 24.7144 31.3545 26.5926 29.7514C28.2857 28.3108 29.1504 24.8104 27.1166 23.228Z" fill="#CBDAF7"/>
<path d="M20.4514 27.1555C19.8997 27.1555 19.3463 27.1555 18.7946 27.1676C18.6306 27.1779 18.4774 27.253 18.3688 27.3762C18.2601 27.4995 18.2049 27.6608 18.2152 27.8248C18.2255 27.9888 18.3006 28.1419 18.4238 28.2506C18.5471 28.3592 18.7084 28.4145 18.8724 28.4042C19.4241 28.4163 19.9775 28.4145 20.5309 28.418C21.3455 28.4266 21.2642 27.1555 20.4514 27.1555ZM24.9634 27.4564C24.3512 27.4184 23.7373 27.3838 23.1233 27.3579C22.4212 27.3267 22.333 28.546 23.0403 28.5944C23.7079 28.6428 24.3754 28.6826 25.043 28.7189C25.3888 28.7362 25.6552 28.3609 25.6344 28.0479C25.6119 27.6743 25.3058 27.4772 24.9634 27.4564Z" fill="#AABFF2"/>
<path d="M13.4126 24.8815C11.8803 24.8815 12.0394 27.2525 13.5613 27.2525C15.0832 27.2525 14.9379 24.8815 13.4126 24.8815ZM30.9126 24.9904C29.2852 24.9904 29.4547 27.5102 31.0717 27.5102C32.6887 27.5102 32.5296 24.9904 30.9126 24.9904Z" fill="black"/>
<path d="M11.1227 24.7344C11.1227 24.2415 10.526 24.0686 10.1767 24.2761C10.095 24.2493 10.0084 24.24 9.92287 24.249C9.83729 24.2581 9.7546 24.2851 9.68025 24.3284C9.60589 24.3717 9.54156 24.4303 9.4915 24.5003C9.44144 24.5703 9.40678 24.6501 9.38982 24.7344C9.15816 25.7477 9.10781 26.794 9.24109 27.8249C9.33966 28.5565 9.49358 29.3814 10.3358 29.537C10.4303 29.5543 10.5274 29.55 10.62 29.5246C10.7125 29.4991 10.7982 29.4531 10.8705 29.3899C10.9428 29.3267 10.9999 29.2481 11.0376 29.1597C11.0753 29.0714 11.0925 28.9758 11.0881 28.8799C11.0483 27.5015 11.1019 26.118 11.1227 24.7344ZM35.2031 24.6549C35.182 24.5472 35.1272 24.449 35.0467 24.3745C34.9662 24.2999 34.8642 24.2528 34.7552 24.2398C34.6597 24.1964 34.5547 24.1778 34.45 24.1858C34.3454 24.1938 34.2444 24.2281 34.1566 24.2856C34.0688 24.343 33.9969 24.4218 33.9477 24.5144C33.8984 24.6071 33.8734 24.7108 33.8749 24.8157C33.8922 26.1093 33.9718 27.4098 34.0583 28.6965C34.0706 28.8347 34.1265 28.9655 34.2178 29.0699C34.3092 29.1743 34.4314 29.247 34.5667 29.2776C36.5469 29.812 35.4159 25.4798 35.2031 24.6549Z" fill="#7D94DF"/>
<path d="M13.6289 28.9784C13.3786 28.898 13.1095 28.898 12.8593 28.9784C12.5909 29.061 12.3604 29.2357 12.2085 29.4718C12.0566 29.7079 11.9931 29.9901 12.0292 30.2686C12.0788 30.5868 12.2484 30.8739 12.5031 31.0711C12.7578 31.2682 13.0783 31.3604 13.3989 31.3287C13.4888 31.3148 13.5754 31.2849 13.6548 31.2405C13.6929 31.2405 13.7292 31.2509 13.769 31.2405C14.0372 31.2108 14.2847 31.0822 14.4632 30.8798C14.6416 30.6773 14.7382 30.4156 14.734 30.1458C14.737 29.8459 14.6234 29.5566 14.4173 29.3388C14.2111 29.1211 13.9284 28.9919 13.6289 28.9784ZM32.1613 29.7497C31.9994 29.6505 31.8191 29.5851 31.6313 29.5575C31.4434 29.5298 31.2519 29.5405 31.0683 29.5889C30.8514 29.5969 30.6403 29.662 30.4566 29.7777C30.2729 29.8934 30.123 30.0556 30.022 30.2478C29.9655 30.3628 29.9457 30.4924 29.9655 30.619C29.9853 30.7456 30.0437 30.863 30.1327 30.9551C30.297 31.7628 31.1531 32.3024 31.959 31.8942C32.7995 31.4792 33.0036 30.2928 32.1613 29.7497Z" fill="#FF766C"/>
</g>
<defs>
<clipPath id="clip0_281_15278">
<rect width="45" height="45" rx="22.5" fill="white"/>
</clipPath>
</defs>
</svg>

<svg xmlns="http://www.w3.org/2000/svg" width="45" height="45" fill="none"><g clip-path="url(#a)"><rect width="45" height="45" fill="#5865F2" rx="22.5"/><path fill="#AABFF2" d="M33.82 39.6c0-4.75-4.21-8.64-9.37-8.64h-3.74c-5.16 0-9.37 3.9-9.37 8.65v4.32c0 .59.08 1.17.24 1.73h22c.16-.56.24-1.14.24-1.73v-4.32Z"/><path fill="#FFC239" d="M19.21 18.58a.7.7 0 0 0-.14-.36c-1.12-1.53-2.23-3.25-3.59-4.67a99.83 99.83 0 0 0-3.35 3.63c.32.6.7 1.18.92 1.81l6.16-.41Zm13.69 2.35c-.11-1.38-.3-2.76-.58-4.12-.19-1.01-.43-2.02-.7-3v-.03c-1.48.84-3 1.56-4.5 2.28v.02c-.05.82-.1 1.76.1 2.58"/><path fill="#000" d="m31.6 13.75-.04-.15c-.2-.72-.38-1.57-.9-2.11a1.46 1.46 0 0 0-1.93-.22c-.66.46-.96 1.36-1.18 2.1-.26.87-.4 1.77-.44 2.68 1.5-.73 3.03-1.44 4.5-2.28v-.02Zm-18.2-1.92c-.44-.27-.97-.5-1.47-.34-.64.18-.94.92-.98 1.58-.06 1.11.45 2.07.76 3.11.1.35.25.69.42 1 1.1-1.23 2.21-2.44 3.35-3.62a10.57 10.57 0 0 0-2.08-1.73Z"/><path fill="#FFC239" d="M34.8 22.32v-.1c-.03-.15-.03-.3-.03-.45a4.9 4.9 0 0 0-.24-1.39 8.6 8.6 0 0 0-.47-1.13c-1.48-2.96-4.3-3.5-7.12-3.63a73.64 73.64 0 0 0-3.74-.12c-3.83 0-6.62.52-9.06 1.66a5.64 5.64 0 0 0-2.96 3.29l-.43 1.77.2.11h23.84Z"/><path fill="#AABFF2" d="M36.68 23.27c-.4-1.24-1.52-1.25-2.6-1.2a9.23 9.23 0 0 0-.78-2.43c-1.28-2.56-3.77-3.03-6.4-3.16-4.2-.2-8.59-.32-12.39 1.46-1.78.84-2.3 2.23-2.7 3.29-.07.19-.12.4-.18.6l-.16-.02c-2.81-.19-3.5 2.08-3.47 4.5.02 1.16.1 2.72.61 3.8.55 1.13 1.76 1.03 2.84.98.1 0 .19-.02.28-.04.9 2.54 3.11 3.53 5.7 3.87 3.95.52 8.4.66 12.35.02 2.46-.4 3.56-1.87 4.05-3.85.32-.01.64-.06.95-.15 1.38-.4 2.15-.9 2.3-2.4.16-1.64.1-3.7-.4-5.27Z"/><path fill="#CBDAF7" d="M27.12 23.23c-1.04-.8-2.49-.84-3.73-.91-1.74-.1-3.49-.01-5.2.27a1.7 1.7 0 0 0-.47.15 1.5 1.5 0 0 0-1.23 1.17c-.6 2.44-.11 5.55 2.5 6.57 2.27.88 5.72.87 7.6-.73 1.7-1.44 2.56-4.94.53-6.52Z"/><path fill="#AABFF2" d="M20.45 27.16H18.8a.62.62 0 1 0 .08 1.24c.55.02 1.1.01 1.66.02.82 0 .73-1.26-.08-1.26Zm4.51.3c-.6-.04-1.22-.08-1.84-.1-.7-.03-.79 1.19-.08 1.23.67.05 1.34.1 2 .13.35.02.62-.36.6-.67-.03-.38-.33-.57-.68-.6Z"/><path fill="#000" d="M13.41 24.88c-1.53 0-1.37 2.37.15 2.37s1.38-2.37-.15-2.37Zm17.5.11c-1.62 0-1.46 2.52.16 2.52 1.62 0 1.46-2.52-.16-2.52Z"/><path fill="#7D94DF" d="M11.12 24.73c0-.49-.6-.66-.94-.45a.61.61 0 0 0-.79.45 8.8 8.8 0 0 0-.15 3.1c.1.73.25 1.55 1.1 1.7a.64.64 0 0 0 .75-.65c-.04-1.38.01-2.76.03-4.15Zm24.08-.08a.52.52 0 0 0-.44-.41.62.62 0 0 0-.89.58c.02 1.29.1 2.59.19 3.88a.66.66 0 0 0 .5.58c1.99.53.86-3.8.64-4.63Z"/><path fill="#FF766C" d="M13.63 28.98a1.26 1.26 0 0 0-1.42.5c-.15.23-.22.51-.18.79a1.26 1.26 0 0 0 1.37 1.06.76.76 0 0 0 .25-.09h.12a1.08 1.08 0 0 0 .96-1.1 1.16 1.16 0 0 0-1.1-1.16Zm18.53.77a1.4 1.4 0 0 0-1.1-.16 1.23 1.23 0 0 0-1.04.66.62.62 0 0 0 .11.7c.17.81 1.02 1.35 1.83.94.84-.41 1.04-1.6.2-2.14Z"/></g><defs><clipPath id="a"><rect width="45" height="45" fill="#fff" rx="22.5"/></clipPath></defs></svg>
